www/assets/icons/architecture.svg

<svg width="24" height="24" viewBox="0 0 24 24" xmlns="http://www.w3.org/2000/svg" fill='currentColor'><path d="M6.35498 18.78L6.60498 21L8.22498 19.46L10.995 11.86C10.315 11.69 9.71498 11.35 9.22498 10.88L6.35498 18.78Z"/><path d="M14.765 10.88C14.275 11.35 13.665 11.69 12.995 11.86L15.765 19.46L17.385 21L17.645 18.78L14.765 10.88Z"/><path d="M14.995 8C14.995 6.7 14.155 5.6 12.995 5.18V3H10.995V5.18C9.83498 5.6 8.99498 6.7 8.99498 8C8.99498 9.66 10.335 11 11.995 11C13.655 11 14.995 9.66 14.995 8ZM11.995 9C11.445 9 10.995 8.55 10.995 8C10.995 7.45 11.445 7 11.995 7C12.545 7 12.995 7.45 12.995 8C12.995 8.55 12.545 9 11.995 9Z"/></svg>

<svg xmlns="http://www.w3.org/2000/svg" width="24" height="24" viewBox="0 0 24 24" fill='currentColor'><path d="m6.355 18.78.25 2.22 1.62-1.54 2.77-7.6c-.68-.17-1.28-.51-1.77-.98zm8.41-7.9c-.49.47-1.1.81-1.77.98l2.77 7.6 1.62 1.54.26-2.22zm.23-2.88c0-1.3-.84-2.4-2-2.82V3h-2v2.18c-1.16.42-2 1.52-2 2.82 0 1.66 1.34 3 3 3s3-1.34 3-3m-3 1c-.55 0-1-.45-1-1s.45-1 1-1 1 .45 1 1-.45 1-1 1"/></svg>
